!! 00000] TT[WS
!!!OTL: Kangri xiaochang
!!!ARE: Asia, China, Shanxi Linxian
!! Ethnic Group: Han
!! WI, 280
!!!SCT: J0335
!!!YEM: Copyright 1995, estate of Helmut Schaffrath.
**kern
*ICvox
*Ivox
*M2/4
*k[b-]
*F:
{8f
16f
16e
8d
8c
=1
8.cc
16dd
8a
8cc
=2
8ff
16ee
16dd
16cc
16dd
16cc
16a
=3
8cc
16g
16a
4g}
=4
{8.g
16a
8cc
8dd
=5
8.ff
16ee
8dd
8cc
=6
8cc
16g
16a
8g
16d
16e
=7
2c}
=8
{8c
16c
16d
4f
=9
8.g
16a
8cc
8dd
=10
8cc
8a
8g
8f
=11
8e
16d
16c
4d}
=12
{8.cc
16dd
8a
8cc
=13
8ff
16ee
16dd
8cc
8a
=14
8cc
16cc
16dd
8cc
8f
=15
8.g
16a
16g
16f
16e
16d
=16
2c}
==
!!!AGN: Xiaodiao. Xinminge, Xuanchuan
!! Neue Text. Politische Liede
!!!ONB: ESAC (Essen Associative Code) Database: CHINA
!!!AMT: simple duple
!!!AIN: vox
!!!EED: Helmut Schaffrath
!!!EEV: 1.0
*-
